components/Common/Svg/svgs/titledGit.svg

<svg width="114" height="148" viewBox="0 0 114 148" fill="none" xmlns="http://www.w3.org/2000/svg">
<path d="M37.3216 129.09C36.9736 128.358 36.4696 127.794 35.8096 127.398C35.1496 126.99 34.3816 126.786 33.5056 126.786C32.6296 126.786 31.8376 126.99 31.1296 127.398C30.4336 127.794 29.8816 128.37 29.4736 129.126C29.0776 129.87 28.8796 130.734 28.8796 131.718C28.8796 132.702 29.0776 133.566 29.4736 134.31C29.8816 135.054 30.4336 135.63 31.1296 136.038C31.8376 136.434 32.6296 136.632 33.5056 136.632C34.7296 136.632 35.7376 136.266 36.5296 135.534C37.3216 134.802 37.7836 133.812 37.9156 132.564H32.9116V131.232H39.6616V132.492C39.5656 133.524 39.2416 134.472 38.6896 135.336C38.1376 136.188 37.4116 136.866 36.5116 137.37C35.6116 137.862 34.6096 138.108 33.5056 138.108C32.3416 138.108 31.2796 137.838 30.3196 137.298C29.3596 136.746 28.5976 135.984 28.0336 135.012C27.4816 134.04 27.2056 132.942 27.2056 131.718C27.2056 130.494 27.4816 129.396 28.0336 128.424C28.5976 127.44 29.3596 126.678 30.3196 126.138C31.2796 125.586 32.3416 125.31 33.5056 125.31C34.8376 125.31 36.0136 125.64 37.0336 126.3C38.0656 126.96 38.8156 127.89 39.2836 129.09H37.3216ZM42.6734 126.534C42.3614 126.534 42.0974 126.426 41.8814 126.21C41.6654 125.994 41.5574 125.73 41.5574 125.418C41.5574 125.106 41.6654 124.842 41.8814 124.626C42.0974 124.41 42.3614 124.302 42.6734 124.302C42.9734 124.302 43.2254 124.41 43.4294 124.626C43.6454 124.842 43.7534 125.106 43.7534 125.418C43.7534 125.73 43.6454 125.994 43.4294 126.21C43.2254 126.426 42.9734 126.534 42.6734 126.534ZM43.4654 128.136V138H41.8274V128.136H43.4654ZM48.2551 129.486V135.3C48.2551 135.78 48.3571 136.122 48.5611 136.326C48.7651 136.518 49.1191 136.614 49.6231 136.614H50.8291V138H49.3531C48.4411 138 47.7571 137.79 47.3011 137.37C46.8451 136.95 46.6171 136.26 46.6171 135.3V129.486H45.3391V128.136H46.6171V125.652H48.2551V128.136H50.8291V129.486H48.2551ZM62.4797 125.454V138H60.8417V132.312H54.4517V138H52.8137V125.454H54.4517V130.962H60.8417V125.454H62.4797ZM74.0246 128.136V138H72.3866V136.542C72.0746 137.046 71.6366 137.442 71.0726 137.73C70.5206 138.006 69.9086 138.144 69.2366 138.144C68.4686 138.144 67.7786 137.988 67.1666 137.676C66.5546 137.352 66.0686 136.872 65.7086 136.236C65.3606 135.6 65.1866 134.826 65.1866 133.914V128.136H66.8066V133.698C66.8066 134.67 67.0526 135.42 67.5446 135.948C68.0366 136.464 68.7086 136.722 69.5606 136.722C70.4366 136.722 71.1266 136.452 71.6306 135.912C72.1346 135.372 72.3866 134.586 72.3866 133.554V128.136H74.0246ZM78.4283 129.972C78.7643 129.384 79.2563 128.904 79.9043 128.532C80.5523 128.16 81.2903 127.974 82.1183 127.974C83.0063 127.974 83.8043 128.184 84.5123 128.604C85.2203 129.024 85.7783 129.618 86.1863 130.386C86.5943 131.142 86.7983 132.024 86.7983 133.032C86.7983 134.028 86.5943 134.916 86.1863 135.696C85.7783 136.476 85.2143 137.082 84.4943 137.514C83.7863 137.946 82.9943 138.162 82.1183 138.162C81.2663 138.162 80.5163 137.976 79.8683 137.604C79.2323 137.232 78.7523 136.758 78.4283 136.182V138H76.7903V124.68H78.4283V129.972ZM85.1243 133.032C85.1243 132.288 84.9743 131.64 84.6743 131.088C84.3743 130.536 83.9663 130.116 83.4503 129.828C82.9463 129.54 82.3883 129.396 81.7763 129.396C81.1763 129.396 80.6183 129.546 80.1023 129.846C79.5983 130.134 79.1903 130.56 78.8783 131.124C78.5783 131.676 78.4283 132.318 78.4283 133.05C78.4283 133.794 78.5783 134.448 78.8783 135.012C79.1903 135.564 79.5983 135.99 80.1023 136.29C80.6183 136.578 81.1763 136.722 81.7763 136.722C82.3883 136.722 82.9463 136.578 83.4503 136.29C83.9663 135.99 84.3743 135.564 84.6743 135.012C84.9743 134.448 85.1243 133.788 85.1243 133.032Z" fill="#A0A0A0"/>
<g clip-path="url(#clip0_6994_50322)">
<path d="M98.3781 45.1682L60.8297 7.62182C58.6686 5.45939 55.1614 5.45939 52.9976 7.62182L45.2005 15.4189L55.0915 25.3099C57.39 24.5333 60.0258 25.0543 61.858 26.8865C63.6989 28.7305 64.2163 31.3887 63.4208 33.6946L72.953 43.2272C75.2592 42.4327 77.9202 42.9467 79.7621 44.7916C82.3364 47.3649 82.3364 51.5356 79.7621 54.1105C77.1872 56.6858 73.0165 56.6858 70.4402 54.1105C68.5038 52.1722 68.0255 49.3285 69.0057 46.943L60.1162 38.0534L60.1151 61.4471C60.7596 61.7657 61.3481 62.1866 61.858 62.6934C64.4323 65.2667 64.4323 69.4377 61.858 72.0147C59.283 74.5886 55.1103 74.5886 52.5391 72.0147C49.9648 69.4377 49.9648 65.267 52.5391 62.6937C53.156 62.0765 53.8891 61.5877 54.6961 61.2556V37.6439C53.888 37.314 53.1544 36.8249 52.5391 36.2057C50.5886 34.258 50.1197 31.3961 51.1191 29.0012L41.3688 19.25L15.6226 44.9945C13.4591 47.159 13.4591 50.6665 15.6226 52.8293L53.1716 90.3763C55.3334 92.5391 58.8399 92.5391 61.0044 90.3763L98.3778 53.0036C100.541 50.8402 100.541 47.3306 98.3778 45.1682" fill="#C2C2C2"/>
</g>
<defs>
<clipPath id="clip0_6994_50322">
<rect width="86" height="86" fill="white" transform="translate(14 6)"/>
</clipPath>
</defs>
</svg>

<svg width="114" height="148" viewBox="0 0 114 148" fill="none" xmlns="http://www.w3.org/2000/svg"><path d="M37.322 129.09a3.844 3.844 0 0 0-1.512-1.692c-.66-.408-1.428-.612-2.304-.612-.876 0-1.668.204-2.376.612-.696.396-1.248.972-1.656 1.728-.396.744-.594 1.608-.594 2.592s.198 1.848.594 2.592c.408.744.96 1.32 1.656 1.728.708.396 1.5.594 2.376.594 1.224 0 2.232-.366 3.024-1.098.792-.732 1.254-1.722 1.386-2.97h-5.004v-1.332h6.75v1.26a6.289 6.289 0 0 1-.972 2.844 6.11 6.11 0 0 1-2.178 2.034c-.9.492-1.902.738-3.006.738-1.164 0-2.226-.27-3.186-.81a6.146 6.146 0 0 1-2.286-2.286c-.552-.972-.828-2.07-.828-3.294 0-1.224.276-2.322.828-3.294a5.976 5.976 0 0 1 2.286-2.286c.96-.552 2.022-.828 3.186-.828 1.332 0 2.508.33 3.528.99 1.032.66 1.782 1.59 2.25 2.79h-1.962Zm5.351-2.556c-.312 0-.576-.108-.792-.324a1.077 1.077 0 0 1-.324-.792c0-.312.108-.576.324-.792.216-.216.48-.324.792-.324.3 0 .552.108.756.324.216.216.324.48.324.792 0 .312-.108.576-.324.792a.998.998 0 0 1-.756.324Zm.792 1.602V138h-1.638v-9.864h1.638Zm4.79 1.35v5.814c0 .48.102.822.306 1.026.204.192.558.288 1.062.288h1.206V138h-1.476c-.912 0-1.596-.21-2.052-.63-.456-.42-.684-1.11-.684-2.07v-5.814H45.34v-1.35h1.278v-2.484h1.638v2.484h2.574v1.35h-2.574Zm14.225-4.032V138h-1.638v-5.688h-6.39V138h-1.638v-12.546h1.638v5.508h6.39v-5.508h1.638Zm11.545 2.682V138h-1.638v-1.458c-.312.504-.75.9-1.314 1.188a4.047 4.047 0 0 1-1.836.414c-.768 0-1.458-.156-2.07-.468a3.582 3.582 0 0 1-1.458-1.44c-.348-.636-.522-1.41-.522-2.322v-5.778h1.62v5.562c0 .972.246 1.722.738 2.25.492.516 1.164.774 2.016.774.876 0 1.566-.27 2.07-.81.504-.54.756-1.326.756-2.358v-5.418h1.638Zm4.403 1.836c.336-.588.828-1.068 1.476-1.44.648-.372 1.386-.558 2.214-.558.888 0 1.686.21 2.394.63a4.446 4.446 0 0 1 1.674 1.782c.408.756.612 1.638.612 2.646 0 .996-.204 1.884-.612 2.664a4.504 4.504 0 0 1-1.692 1.818c-.708.432-1.5.648-2.376.648-.852 0-1.602-.186-2.25-.558-.636-.372-1.116-.846-1.44-1.422V138H76.79v-13.32h1.638v5.292Zm6.696 3.06c0-.744-.15-1.392-.45-1.944a3.098 3.098 0 0 0-1.224-1.26 3.314 3.314 0 0 0-1.674-.432c-.6 0-1.158.15-1.674.45-.504.288-.912.714-1.224 1.278-.3.552-.45 1.194-.45 1.926 0 .744.15 1.398.45 1.962.312.552.72.978 1.224 1.278a3.379 3.379 0 0 0 1.674.432c.612 0 1.17-.144 1.674-.432.516-.3.924-.726 1.224-1.278.3-.564.45-1.224.45-1.98Z" fill="#A0A0A0"/><g><path d="M98.378 45.168 60.83 7.622a5.539 5.539 0 0 0-7.832 0L45.2 15.419l9.89 9.89a6.575 6.575 0 0 1 6.767 1.578 6.585 6.585 0 0 1 1.563 6.808l9.532 9.532a6.58 6.58 0 0 1 6.81 1.565 6.588 6.588 0 0 1 0 9.319 6.59 6.59 0 0 1-10.757-7.168l-8.89-8.89v23.394c.644.319 1.232.74 1.742 1.246a6.59 6.59 0 1 1-7.162-1.437V37.644a6.51 6.51 0 0 1-2.157-1.438A6.588 6.588 0 0 1 51.12 29l-9.75-9.751-25.746 25.745a5.54 5.54 0 0 0 0 7.834l37.549 37.547a5.539 5.539 0 0 0 7.832 0l37.374-37.372a5.541 5.541 0 0 0 0-7.836" fill="#C2C2C2"/></g><defs><clipPath id="a"><path fill="#fff" transform="translate(14 6)" d="M0 0h86v86H0z"/></clipPath></defs></svg>
